svgs/sharp-light/expand.svg

<svg xmlns="http://www.w3.org/2000/svg" viewBox="0 0 448 512"><!--! Font Awesome Pro 6.6.0 by @fontawesome - https://fontawesome.com License - https://fontawesome.com/license (Commercial License) Copyright 2024 Fonticons, Inc. --><path d="M144 32l16 0 0 32-16 0L32 64l0 112 0 16L0 192l0-16L0 48 0 32l16 0 128 0zM0 336l0-16 32 0 0 16 0 112 112 0 16 0 0 32-16 0L16 480 0 480l0-16L0 336zM432 32l16 0 0 16 0 128 0 16-32 0 0-16 0-112L304 64l-16 0 0-32 16 0 128 0zM416 336l0-16 32 0 0 16 0 128 0 16-16 0-128 0-16 0 0-32 16 0 112 0 0-112z"/></svg>

<svg xmlns="http://www.w3.org/2000/svg" viewBox="0 0 448 512"><!--! Font Awesome Pro 6.4.2 by @fontawesome - https://fontawesome.com License - https://fontawesome.com/license (Commercial License) Copyright 2023 Fonticons, Inc. --><path d="M144 32h16V64H144 32V176v16H0V176 48 32H16 144zM0 336V320H32v16V448H144h16v32H144 16 0V464 336zM432 32h16V48 176v16H416V176 64H304 288V32h16H432zM416 336V320h32v16V464v16H432 304 288V448h16H416V336z"/></svg>
